X: 16296
T: Grinders, The
R: slip jig
M: 9/8
K: Gmajor
|gfg edc d2B|gfg edc d3|gfg edc d2B|ABA ABc d3|
gfg edc d2B|gfg edc d3|gfg edc d2B|ABA ABc d2B||
ABA A2B G3|ABA ABd edB|ABA A2B G3|ABA ABc d2B|
ABA A2B G3|ABA ABd edB|ABA A2B G3|ABA ABc D3||

